X:2085
T:Torader Halling
Z:[[http://www.bluerose.karenlmyers.org/IncipitsHalling2.html|Karen Myers (#2085)]]
Z:Upptecknad 4/2003
M:2/4
L:1/16
R:Halling
K:G
D2EFG4 | D2EFG4 || D2EF AFGB | D2EF AFG2 || B2dB A2>F2 |
GDEF AFG2 || B2dB A2>F2 | DddBA4 || DddB BAAF |
DddBA4 || D4 BGAF | D2EF A,2AF | D2EFG4 | D2EFG4 |]
